django_app/project/static/css/foundation_icons/svgs/fi-arrows-out.svg

<?xml version="1.0" encoding="utf-8"?>
<!-- Generator: Adobe Illustrator 17.0.0, SVG Export Plug-In . SVG Version: 6.00 Build 0)  -->
<!DOCTYPE svg PUBLIC "-//W3C//DTD SVG 1.1//EN" "http://www.w3.org/Graphics/SVG/1.1/DTD/svg11.dtd">
<svg version="1.1" id="Layer_1" xmlns="http://www.w3.org/2000/svg" xmlns:xlink="http://www.w3.org/1999/xlink" x="0px" y="0px"
	 width="100px" height="100px" viewBox="0 0 100 100" enable-background="new 0 0 100 100" xml:space="preserve">
<g>
	<g>
		<path d="M4.712,69.854l-4.69,28.273c-0.086,0.512,0.082,1.034,0.449,1.401c0.002,0.003,0.002,0.003,0.002,0.003
			c0.37,0.368,0.893,0.535,1.406,0.447l28.197-4.765c0.594-0.1,1.081-0.525,1.264-1.1c0.185-0.572,0.031-1.202-0.396-1.628
			l-5.513-5.513l14.802-14.802c0.63-0.629,0.63-1.647,0-2.277l-10.2-10.201c-0.63-0.629-1.648-0.629-2.278,0L12.954,74.493
			l-5.515-5.515c-0.425-0.425-1.055-0.577-1.63-0.394C5.234,68.768,4.811,69.258,4.712,69.854z"/>
	</g>
	<g>
		<path d="M95.288,30.146l4.69-28.273c0.085-0.512-0.083-1.034-0.449-1.4C99.527,0.47,99.527,0.47,99.527,0.47
			c-0.37-0.367-0.893-0.534-1.406-0.447L69.924,4.788c-0.594,0.1-1.081,0.525-1.265,1.1c-0.185,0.572-0.031,1.202,0.396,1.628
			l5.513,5.513L59.766,27.83c-0.629,0.629-0.629,1.648,0,2.278l10.2,10.201c0.63,0.629,1.648,0.629,2.278,0l14.802-14.802
			l5.515,5.515c0.425,0.425,1.056,0.578,1.63,0.394C94.766,31.232,95.19,30.742,95.288,30.146z"/>
	</g>
	<g>
		<path d="M69.854,95.288l28.271,4.69c0.512,0.086,1.035-0.082,1.401-0.449c0.002-0.003,0.002-0.003,0.002-0.003
			c0.368-0.37,0.535-0.892,0.448-1.406l-4.765-28.196c-0.1-0.594-0.525-1.081-1.1-1.265c-0.572-0.185-1.202-0.031-1.628,0.396
			l-5.513,5.513L72.169,59.765c-0.628-0.628-1.647-0.628-2.277,0.001L59.691,69.967c-0.629,0.629-0.629,1.648,0,2.277l14.802,14.802
			l-5.515,5.515c-0.425,0.425-0.577,1.055-0.393,1.63C68.768,94.766,69.258,95.19,69.854,95.288z"/>
	</g>
	<g>
		<path d="M30.146,4.712L1.874,0.022C1.361-0.064,0.84,0.104,0.473,0.471C0.47,0.474,0.47,0.474,0.47,0.474
			C0.103,0.844-0.064,1.366,0.023,1.88l4.766,28.197c0.1,0.593,0.525,1.081,1.099,1.264c0.573,0.186,1.202,0.032,1.629-0.395
			l5.513-5.513L27.83,40.234c0.63,0.63,1.648,0.63,2.278,0.001l10.201-10.201c0.63-0.63,0.63-1.648,0-2.278L25.507,12.954
			l5.515-5.515c0.424-0.425,0.577-1.056,0.394-1.63C31.232,5.234,30.742,4.81,30.146,4.712z"/>
	</g>
</g>
</svg>

<?xml version="1.0" encoding="UTF-8" standalone="no"?>
<!-- Generator: Adobe Illustrator 17.0.0, SVG Export Plug-In . SVG Version: 6.00 Build 0)  -->

<svg
   xmlns:dc="http://purl.org/dc/elements/1.1/"
   xmlns:cc="http://creativecommons.org/ns#"
   xmlns:rdf="http://www.w3.org/1999/02/22-rdf-syntax-ns#"
   xmlns:svg="http://www.w3.org/2000/svg"
   xmlns="http://www.w3.org/2000/svg"
   xmlns:sodipodi="http://sodipodi.sourceforge.net/DTD/sodipodi-0.dtd"
   xmlns:inkscape="http://www.inkscape.org/namespaces/inkscape"
   version="1.1"
   id="Layer_1"
   x="0px"
   y="0px"
   width="100px"
   height="100px"
   viewBox="0 0 100 100"
   enable-background="new 0 0 100 100"
   xml:space="preserve"
   inkscape:version="0.48.3.1 r9886"
   sodipodi:docname="fi-arrows-out.svg"><metadata
   id="metadata25"><rdf:RDF><cc:Work
       rdf:about=""><dc:format>image/svg+xml</dc:format><dc:type
         rdf:resource="http://purl.org/dc/dcmitype/StillImage" /></cc:Work></rdf:RDF></metadata><defs
   id="defs23" /><sodipodi:namedview
   pagecolor="#ffffff"
   bordercolor="#666666"
   borderopacity="1"
   objecttolerance="10"
   gridtolerance="10"
   guidetolerance="10"
   inkscape:pageopacity="0"
   inkscape:pageshadow="2"
   inkscape:window-width="1366"
   inkscape:window-height="719"
   id="namedview21"
   showgrid="false"
   inkscape:zoom="2.36"
   inkscape:cx="50"
   inkscape:cy="50"
   inkscape:window-x="0"
   inkscape:window-y="24"
   inkscape:window-maximized="1"
   inkscape:current-layer="Layer_1" />
<g
   id="g3"
   transform="matrix(0.50392186,0.50391518,-0.50391928,0.50391776,50.211906,-0.60332211)">
	<g
   id="g5">
		<path
   d="m 4.712,69.854 -4.69,28.273 c -0.086,0.512 0.082,1.034 0.449,1.401 0.002,0.003 0.002,0.003 0.002,0.003 0.37,0.368 0.893,0.535 1.406,0.447 l 28.197,-4.765 c 0.594,-0.1 1.081,-0.525 1.264,-1.1 0.185,-0.572 0.031,-1.202 -0.396,-1.628 L 25.431,86.972 40.233,72.17 c 0.63,-0.629 0.63,-1.647 0,-2.277 l -10.2,-10.201 c -0.63,-0.629 -1.648,-0.629 -2.278,0 L 12.954,74.493 7.439,68.978 C 7.014,68.553 6.384,68.401 5.809,68.584 5.234,68.768 4.811,69.258 4.712,69.854 z"
   id="path7"
   inkscape:connector-curvature="0" />
	</g>
	<g
   id="g9">
		<path
   d="M 95.288,30.146 99.978,1.873 C 100.063,1.361 99.895,0.839 99.529,0.473 99.527,0.47 99.527,0.47 99.527,0.47 99.157,0.103 98.634,-0.064 98.121,0.023 L 69.924,4.788 c -0.594,0.1 -1.081,0.525 -1.265,1.1 -0.185,0.572 -0.031,1.202 0.396,1.628 l 5.513,5.513 -14.802,14.801 c -0.629,0.629 -0.629,1.648 0,2.278 l 10.2,10.201 c 0.63,0.629 1.648,0.629 2.278,0 l 14.802,-14.802 5.515,5.515 c 0.425,0.425 1.056,0.578 1.63,0.394 0.575,-0.184 0.999,-0.674 1.097,-1.27 z"
   id="path11"
   inkscape:connector-curvature="0" />
	</g>
	<g
   id="g13">
		<path
   d="m 69.854,95.288 28.271,4.69 c 0.512,0.086 1.035,-0.082 1.401,-0.449 0.002,-0.003 0.002,-0.003 0.002,-0.003 0.368,-0.37 0.535,-0.892 0.448,-1.406 L 95.211,69.924 c -0.1,-0.594 -0.525,-1.081 -1.1,-1.265 -0.572,-0.185 -1.202,-0.031 -1.628,0.396 L 86.97,74.568 72.169,59.765 c -0.628,-0.628 -1.647,-0.628 -2.277,10e-4 L 59.691,69.967 c -0.629,0.629 -0.629,1.648 0,2.277 l 14.802,14.802 -5.515,5.515 c -0.425,0.425 -0.577,1.055 -0.393,1.63 0.183,0.575 0.673,0.999 1.269,1.097 z"
   id="path15"
   inkscape:connector-curvature="0" />
	</g>
	<g
   id="g17">
		<path
   d="M 30.146,4.712 1.874,0.022 C 1.361,-0.064 0.84,0.104 0.473,0.471 0.47,0.474 0.47,0.474 0.47,0.474 0.103,0.844 -0.064,1.366 0.023,1.88 l 4.766,28.197 c 0.1,0.593 0.525,1.081 1.099,1.264 0.573,0.186 1.202,0.032 1.629,-0.395 l 5.513,-5.513 14.8,14.801 c 0.63,0.63 1.648,0.63 2.278,10e-4 L 40.309,30.034 c 0.63,-0.63 0.63,-1.648 0,-2.278 L 25.507,12.954 31.022,7.439 C 31.446,7.014 31.599,6.383 31.416,5.809 31.232,5.234 30.742,4.81 30.146,4.712 z"
   id="path19"
   inkscape:connector-curvature="0" />
	</g>
</g>
</svg>
